!!!OTL: Die ongrische Braut (300), S. 620
!!!id: T0490
**kern
*clefG2
*k[f#]
*e:
{8g
=1
8g
8f#
4.e
8d
=2
8g
8a
4b}
8r
=3
{8a
=4
8cc
8b
4.a
8f#
=5
8g
8f#
4e}
8r
=6
{8g
=7
8g
8f#
4.e
8d
=8
8g
8a
4b}
8r
=9
{8a
=10
8cc
8b
4.a
8f#
=11
8g
8f#
4e}
8r
==
*-
!!!minrhy: 8
!!!meters: 3/4 ]  ZZ[4
!!!cut: Die ongrische Braut (300), S. 620
!!!reg: Luxemburg
!!!trd: Singendes Volk, Esch-Alzette 1937 posth.
!!!rhy1: X  XXX_.X  XXX_0
!!!rhy2: X  XXX_.X  XXX_0
!!!key: T0490  08  E 3/4 ]  ZZ[4
!!!mod: HEPTATONIK AEOLISCH]  AMBITUS[7b
!!!kad: 5151
!!!akz: 3b3b_6b3b_3b3b_6b3b_
!!!fot: 'a__b__a__b__
!!!for: 'a__a__a__a__
!!!fok: 'Va_^d_Va_^d_
!! PHRAS[AUFTAKTIG]
!!!fkt: geistliches Lied
!!!bem: Kehmen, fff Anna Faber, *1863, 15.12.1933
!! THILL, Mathias
!! PR[25] 2K[6] 2G[19] 3K[0] 3G[9] 4A[3] 4Ü[0] 5A[0] 6K[0] 6G[0]
!! 7K[0] 7G[0] 8A[0] MEHR[0] SI[38] ABS[32] SR[25] SP[13]
!! ST[8] 2k[6] 2g[25] 3k[0] 3g[3] 4d[0] 4ü[0] 5d[0] 6k[0] 6g[3]
!! 7k[0] 7g[0] 8d[0] mehr[0] si[38] dm[0] sr[31] sp[6]
!! 1F[69] 2F[26] 3F[0] 4F[0] LF[0] 2P[6] 3P[0] 4P[0] TRI[0] DF[3] AB[35]
!! TF[0] U3K[0] U3[0] U4[0] U4Ü[0] U5[3] U6K[0] U6[0] U7K[0] U7[0]
!! N1[24] N2K[0] N2[24] N3K[0] N3[33] N4[9] N4Ü[0] N5[6] N6K[0] N6[0]
!!!n7k: 0] N7[0] O1[0] O2K[0] O2[0] O3K[0] O3[0] HÖ[0
